src/images/subtract.svg

<svg width="22" height="22" viewBox="0 0 22 22" fill="none" xmlns="http://www.w3.org/2000/svg">
<path d="M9.38488 1.65561C9.58175 1.18895 9.03973 0.758987 8.63011 1.05689L0.411836 7.03382C0.153092 7.222 8.63274e-06 7.52262 8.63274e-06 7.84256V12.4828C8.63274e-06 12.6932 0.131707 12.8811 0.32948 12.9529L3.15637 13.9785C3.65685 14.1601 4.21185 13.9177 4.41879 13.4271L9.38488 1.65561Z" fill="#F2F2F3"/>
<path d="M0.62116 14.9076C0.322174 14.7916 5.37847e-06 15.0122 2.35835e-06 15.3329C8.89497e-07 15.4889 0.0796849 15.634 0.211271 15.7178L9.23069 21.4574C9.33259 21.5223 9.44078 21.3844 9.35355 21.3008L4.22556 16.3879C4.13043 16.2968 4.01823 16.2254 3.89541 16.1777L0.62116 14.9076Z" fill="#F2F2F3"/>
<path d="M12.6465 21.3008C12.5592 21.3844 12.6674 21.5223 12.7693 21.4574L21.7887 15.7178C21.9203 15.634 22 15.4889 22 15.3329C22 15.0122 21.6778 14.7916 21.3788 14.9076L18.1046 16.1777C17.9818 16.2254 17.8696 16.2968 17.7745 16.3879L12.6465 21.3008Z" fill="#F2F2F3"/>
<path d="M21.6705 12.9529C21.8683 12.8811 22 12.6932 22 12.4828V7.84256C22 7.52262 21.8469 7.222 21.5882 7.03382L13.3699 1.05689C12.9603 0.758988 12.4183 1.18895 12.6151 1.65561L17.5812 13.4271C17.7882 13.9177 18.3432 14.1601 18.8436 13.9785L21.6705 12.9529Z" fill="#F2F2F3"/>
<path d="M11.7142 19.9615C11.3221 20.3616 10.6779 20.3616 10.2858 19.9615L6.10635 15.6968C5.83068 15.4155 5.7458 14.9986 5.88954 14.6319L10.069 3.97004C10.4009 3.12332 11.5991 3.12333 11.931 3.97004L16.1105 14.6319C16.2542 14.9986 16.1693 15.4155 15.8937 15.6968L11.7142 19.9615Z" fill="#F2F2F3"/>
</svg>

<svg xmlns="http://www.w3.org/2000/svg" width="22" height="22" fill="none"><path fill="#F2F2F3" d="M9.385 1.656c.197-.467-.345-.897-.755-.6L.412 7.035A1 1 0 0 0 0 7.843v4.64a.5.5 0 0 0 .33.47l2.826 1.026a1 1 0 0 0 1.263-.552L9.385 1.656ZM.621 14.908a.456.456 0 0 0-.41.81l9.02 5.74c.102.064.21-.074.123-.157l-5.128-4.913a1.001 1.001 0 0 0-.33-.21L.62 14.908ZM12.646 21.3c-.087.084.021.222.123.157l9.02-5.74a.456.456 0 0 0-.41-.81l-3.274 1.27c-.123.048-.235.12-.33.21l-5.128 4.914ZM21.67 12.953a.5.5 0 0 0 .33-.47v-4.64a1 1 0 0 0-.412-.81L13.37 1.058c-.41-.298-.952.132-.755.599l4.966 11.771a1 1 0 0 0 1.263.552l2.826-1.026ZM11.714 19.962a1 1 0 0 1-1.428 0l-4.18-4.265a1 1 0 0 1-.216-1.065L10.069 3.97c.332-.847 1.53-.847 1.862 0l4.18 10.662a1 1 0 0 1-.217 1.065l-4.18 4.265Z"/></svg>
